svgs/thin/eye-dropper-half.svg

<svg xmlns="http://www.w3.org/2000/svg" viewBox="0 0 512 512"><!--! Font Awesome Pro 6.0.0-alpha3 by @fontawesome - https://fontawesome.com License - https://fontawesome.com/license (Commercial License) --><path d="M301.4 320L88.08 320l101.7-103.8C192.8 213.1 192.8 208 189.6 204.9C186.5 201.8 181.4 201.9 178.3 205l-126.8 129.4c-12.41 12.41-19.54 29.59-19.54 47.16v39.56l-30.91 53.38c-1.844 3.125-1.312 7.094 1.252 9.656l25.47 25.47C29.35 511.2 31.41 512 33.47 512c1.375 0 2.75-.3438 4-1.094L90.86 480h39.57c17.56 0 34.75-7.125 47.1-19.47l129.5-126.8c3.156-3.094 3.219-8.156 .125-11.31C305.6 320.8 303.5 320 301.4 320zM166.3 449.2C156.8 458.6 143.8 464 130.4 464h-41.72c-1.406 0-2.781 .375-4 1.094L34.79 494l-16.78-16.78l28.91-49.91c.7207-1.219 1.096-2.594 1.096-4v-41.72c0-13.34 5.406-26.41 14.91-35.91L72.41 336h209.4L166.3 449.2zM483.2 28.91C464.5 10.28 439.7 0 413.4 0c-26.38 0-51.16 10.28-69.79 28.91L223.9 148.6L197.7 122.3c-3.125-3.125-8.188-3.125-11.31 0c-3.127 3.125-3.127 8.188 0 11.31l192 192C379.1 327.2 381.1 328 384.1 328c2.062 0 4.094-.7813 5.656-2.344c3.125-3.125 3.125-8.188 0-11.31L363.5 288.1l119.7-119.7C521.6 129.9 521.6 67.34 483.2 28.91zM352.2 276.8L235.2 159.9l119.7-119.7C370.5 24.59 391.3 16 413.4 16c22.1 0 42.85 8.594 58.44 24.22c32.22 32.22 32.22 84.66 0 116.9L352.2 276.8z"/></svg>

<svg xmlns="http://www.w3.org/2000/svg" viewBox="0 0 512 512"><!-- Font Awesome Pro 6.0.0-alpha2 by @fontawesome - https://fontawesome.com License - https://fontawesome.com/license (Commercial License) --><path d="M301.38 320.049L88.081 320L189.745 216.219C192.839 213.062 192.776 208 189.62 204.906C186.495 201.812 181.43 201.875 178.305 205.031L51.54 334.438C39.131 346.844 32.005 364.031 32.005 381.594V421.156L1.094 474.531C-0.749 477.656 -0.218 481.625 2.346 484.188L27.817 509.656C29.348 511.188 31.411 512 33.475 512C34.85 512 36.225 511.656 37.475 510.906L90.856 480H130.424C147.989 480 165.178 472.875 177.524 460.531L307.01 333.719C310.167 330.625 310.229 325.563 307.135 322.406C305.555 320.795 303.471 320.039 301.38 320.049ZM166.272 449.156C156.835 458.594 143.77 464 130.424 464H88.7C87.294 464 85.919 464.375 84.7 465.094L34.788 494L18.005 477.219L46.913 427.312C47.633 426.094 48.008 424.719 48.008 423.312V381.594C48.008 368.25 53.415 355.188 62.917 345.688L72.407 336H281.813L166.272 449.156ZM483.157 28.906C464.53 10.281 439.745 0 413.399 0C387.02 0 362.235 10.281 343.608 28.906L223.921 148.578L197.682 122.344C194.557 119.219 189.495 119.219 186.37 122.344C183.243 125.469 183.243 130.531 186.37 133.656L378.393 325.656C379.956 327.219 381.987 328 384.051 328C386.114 328 388.145 327.219 389.708 325.656C392.833 322.531 392.833 317.469 389.708 314.344L363.469 288.109L483.157 168.438C521.631 129.938 521.6 67.344 483.157 28.906ZM352.157 276.797L235.235 159.891L354.923 40.219C370.549 24.594 391.301 16 413.399 16C435.495 16 456.247 24.594 471.842 40.219C504.065 72.437 504.065 124.875 471.842 157.125L352.157 276.797Z"/></svg>
